X:1
T:James Gibb editions
T:Hodie apparuit - Lasso
T:#
%%score [ 1 2 3 ]
L:1/8
Q:1/4=60
M:4/4
K:F
V:1 treble-8 nm="Tenor I" snm="T I"
V:2 treble-8 nm="Tenor II" snm="T II"
V:3 bass nm="Bass" snm="B"
V:1
"^Hodie apparuit""^Orlando di Lasso\n(1532-94)"!mf!"^lento" c6 c2 | c4 z2 c2 | %2
w: Ho- di-|e ap-|
"^cresc." !>!f3 e"^," d2 c2 | !>!f3 e"^," d2!f! c2 | f2 f2 f4 | z2 f2 f2 f2 | %6
w: pa- ru- it, ap-|pa- ru- it in|I- sra- el,|ap- pa- ru-|
[M:4/4][K:treble-8]!>(! _e2 d2 c3 c!>)! |"^," c2!mf! c2 !>!f3 !courtesy!=e | d2 c2 !>!f3 e | %9
w: it in I- sra-|el, ap- pa- ru-|it, ap- pa- ru-|
"^," d2!<(! e2 f2 f2!<)! | !>!e4 z2!mf! c2- | c2 d2 e2 f2 | e2 d2"^," c2 d2 | (efgc defe | %14
w: it in I- sra-|el, per|* Ma- ri- am|vir- gi- nem est|na- * * * * * * *|
 g"^,"f f4) e2 | f4 z2 c2- | c2!<(! d2 e2 f2!<)! |!>(! g2 f2!>)! e4 |!<(! c4 d2 e2-!<)! | %19
w: * * * tus|Rex, per|* Ma- ri- am|vir- gi- nem,|per Ma- ri|
 e2"^," f2 g3 f | (e2 d2 c4) | z2!f! c4 d2 | e4"^," f2 g2- | g2 f2"^," e2 d2 | G2 (A3 G A2) | %25
w: * am vir- gi-|nem, * *|per Ma-|ri- am vir\-|* gi- nem est|na- tus * *|
 d4 z2!mf! (c2 | d2) e2 f2 d2 | e2 f2!>(! d4 | _e2 d2!>)!"^," B2!p! (dc | %29
w: Rex, per|* Ma- ri- am|vir- gi- nem|est na- tus, est *|
[Q:1/4=59] B[Q:1/4=57]A[Q:1/4=56] d2)"^rit."[Q:1/4=53] c2[Q:1/4=51] B2 |[Q:1/4=50] !fermata!A8 |] %31
w: * * * na- tus|Rex.|
V:2
 z4!mf! A4- | A2 A2 A4 | z2"^cresc." c2 !>!f3 e |"^," d2 c2 !>!f3 e | d2"^," c2!f! d2 c2 | %5
w: Ho\-|* di- e|ap- pa- ru-|it, ap- pa- ru-|it in I- sra-|
"^," B2 c2 !>!d3 c |[M:4/4][K:treble-8]!>(! B2 A2 A2 G2!>)! |"^," A2!mf! A2 !>!d3 c | %8
w: el, ap- pa- ru-|it in I- sra-|el, ap- pa- ru-|
 B2 A2 !>!d3 c |"^," B2!<(! c2 A2 B2!<)! |!>(! (c3 B/A/!>)! G4) | z4 z2!mf! F2 | G4 A2 B2 | %13
w: it, ap- pa- ru-|it in I- sra-|el, * * *|per|Ma- ri- am|
 c4 B2 A2 | B4 G2 G2 |"^," F2 F2!<(! G4 | A2!<)!"^," B2 (c2 BA | G2) A2"^," G2 (cB | AG A2) D2 C2 | %19
w: vir- gì- nem|est na- tus|Rex, per Ma-|ri- am vir\- * *|* gi- nem est *|* * * na- tus|
 c4 z4 | z4 z2!f! F2 |!<(! G2 A4!<)! B2 | c3 B"^," A2 G2 | c2 (c3 =B/A/ B2) | c4 z2!mf! F2- | %25
w: Rex,|per|Ma- ri- am|vir- gi- nem est|na- tus * * *|Rex, per|
 F2 G2 A4 |"^," B2 c4 B2 |"^," A4 B4 |!>(! G4!>)! G4 |"^rit."!p! F8- | !fermata!F8 |] %31
w: * Ma- ri-|am vir- gi-|nem est|na- tus|Rex.||
V:3
 z8 |!mf! F,6 F,2 |!<(! F,8-!<)! | F,8 | z2!f! F,2 !>!B,3 A, |"^," G,2 F,2 !>!B,3 A, | %6
w: |Ho- di-|e||ap- pa- ru-|it, ap- pa- ru-|
[M:4/4]!>(! G,2 F,2 F,2 E,2!>)! | F,4 z2!mf! B,,2- | B,,2 !>!F,2 D,2 B,,2- | %9
w: it in I- sra-|el ap\-|* pa- ru- it|
"^," B,,2!<(! A,,2 D,2 D,2!<)! | !>!C,8 |!mf! F,4 E,2 D,2 | C,2 B,,2 A,,2 G,,2 | z8 | z2 B,,4 C,2 | %15
w: * in I- sra-|el|per Ma- ri-|am vir- gi- nem,||per Ma-|
 D,4 E,4 | F,2 D,2"^," C,2 D,2 | E,2 F,2 C,4 | z2!<(! F,4 G,2!<)! | A,4"^," B,2 C2- | %20
w: ri- am|vir- gi- nem est|na- tus Rex,|per Ma-|ri- am vir\-|
!>(! C2 B,2!>)! A,4 | E,2 F,2 A,2 G,2 | z2!f! C,2 D,2 E,2- | E,2 F,2 G,3 F, |"^," E,2 F,2 D,4 | %25
w: * gi- nem|est na- tus Rex,|per Ma- ri\-|* am vir- gi-|nem est na-|
!>(! B,,4!>)! A,,4 | z2!mf! A,,4 B,,2 | C,2 D,2 B,,2 G,,2 |!>(! (C,2 B,,A,, G,,A,,B,,C,!>)! | %29
w: tus Rex,|per Ma-|ri- am vir- gì-|nem * * * * * *|
 D,2)!p! B,,2"^rit." A,,2 B,,2 | !fermata!F,,8 |] %31
w: * est na- tus|Rex.|

